X: 7
T: Fred Finn's
R: reel
M: 4/4
L: 1/8
K: Dmaj
|: A3F ABde | fdec d2cd | BEE2 ~G3B | AFF2 DEFG |
~A3F ABde | fdec d2cd | BAFB ABde | f/2g/2aeg fdd2 :|
|: fdad bdaf | dfaf ffed | fbba ~b3a | fbba fee2 |
fdad bdaf | dfaf ffed | BAFB ABde | f/2g/2aeg fdd2 :|


Tune 452	Setting 13334

